X:3
T:Wearing of the Green
C:Traditional
M:4/4
R:March
L:1/8
K:D
[|: {g}A>B | {GdG}c2 {gcd}cB {g}ce {A}ec | {gcd}cB {g}B>c {gBd}B2 {g}ce | {g}fd {ag}a>g {a}fe {gcd}cA | {gBd}BA {g}A>B {G}A2 :|]
{ag}a>g | {a}fe {gef}ec {g}e>c {g}A>B | {cd}cB {g}c>d {gef}e2 {ag}a>g | {a}fe {gef}ec {g}e>c {g}A>B | {gcd}cB {g}B>c {gBd}B2 {g}A>B |
{GdG}c2 {gcd}cB {g}ce {A}ec | {gcd}cB {g}B>c {gBd}B2 {gcd}ce | {g}fd {ag}a>g {a}fe {gcd}cA | {gBd}BA {g}A>B {G}A2 |]

